crates/photonic-video/tests/fixtures/channel_swap_rgb_to_gbr.cube
TITLE "channel swap rgb->gbr"
LUT_3D_SIZE 2
DOMAIN_MIN 0 0 0
DOMAIN_MAX 1 1 1
0 0 0
0 0 1
1 0 0
1 0 1
0 1 0
0 1 1
1 1 0
1 1 1
